X:65
T: BRUEDER LAGERT EUCH IM KREISE
N: B0551
O: Europa, Mitteleuropa, Deutschland
R: Studenten -, Trink - Lied
M: 3/4
L: 1/8
K: Bb
 | F2B2B2 | B2G2G2 |
e2c2A2 | cBB4 |
F2B2B2 | B2G2G2 |
e2c2A2 | cBB4 |
d3Bfd | dcc4 |
B3dcB | BAA4 |
G3ABG | F2e2d2 |
c2B2A2 | B4z2 |
d3Bfd | dcc4 |
B3dcB | BAA4 |
G3ABG | F2e2d2 |
c2B2A2 | B4z2

@@@ Tune index: 2283
